X:1
T:I Will Uphold Thee
T:Rigdon McCoy McIntosh
T:I Will Uphold Thee
T:Public Domain
T:Public Domain
C:Rigdon McCoy McIntosh
Z:Public Domain
%%score ( 1 2 ) ( 3 4 )
L:1/8
M:4/4
K:C
V:1 treble 
V:2 treble 
V:3 bass 
V:4 bass 
V:1
 ([CE][DF]) | [EG]2 [Ec]2 [Ec]2 [EG]2 | [FA]2 [Ac]2 [Ac]2 [FA]2 | [EG]2 [CE]2 (AG) [CE]2 | %4
w: 1.~O *|pro- mise sweet! He|lead- eth me O’er|wa- ters wild * and|
w: 2.~Some- *|times He leads o’er|mount- ain height, Or|val- leys dark * and|
w: 3.~Some- *|times He leads by|wa- ters still, Where|all is peace * and|
w: 4.~It *|mat- ters not if|sha- dows lie Up-|on my path- * way|
 [B,D]6 ([CE][DF]) | [EG]2 [Ec]2 [Ec]2 [EG]2 | [FA]2 [Ac]2 [Ac]2 [FA]2 | [EG]2 [Ec]2 [DB]2 (AB) | %8
w: I will *|not fear the rag-|ing sea If He|my soul doth keep. *|
w: Yet, worn *|and wea- ry, in|the night His bless-|èd voice I hear. *|
w: And qui- *|et joys my bo-|som fill, Like that|sweet rest a- bove. *|
w: A gold- *|en light il- lumes|my sky, If on-|ly God is near. *|
 [Ec]6 ||"^Refrain" [CE][DF] | [EG]2 [EG]>[EG] [FA][EG][CE][EG] | [Ec]4 [EG]2 [EG][EG] | %12
w: ||||
w: will|trust in|the pro- mise of my Sav- ior,|I will trust in|
w: ||||
w: ||||
 [FA]2 [FA]>[FA] [FA][Ac][GB][FA] | [EG]4 [CE]2 [CE][DF] | [EG]2 [EG]>[EG] [FA][EG][Gc][Gd] | %15
w: |||
w: the pro- mise of my Sav- ior,|I will trust in|the pro- mise of my Sav- ior,|
w: |||
w: |||
 [Ge]4 [Ec]2 G2 | [FA]2 [Dc]2 [DB]2 (AB) | [Ec]6 |] %18
w: |||
w: And He will|me home. * * *||
w: |||
w: |||
V:2
 x2 | x8 | x8 | x4 C2 x2 | x8 | x8 | x8 | x6 F2 | x6 || x2 | x8 | x8 | x8 | x8 | x8 | x6 G2 | %16
w: |||deep;|||||||||||||
w: |||drear;||||I||||||||lead|
w: |||love;|||||||||||||
w: |||here;|||||||||||||
 x6 F2 | x6 |] %18
w: ||
w: ||
w: ||
w: ||
V:3
 [C,G,]2 | [C,G,]2 [C,G,]2 [C,G,]2 [C,C]2 | [F,C]2 [F,C]2 [F,C]2 [F,C]2 | %3
 [C,C]2 [C,G,]2 (F,E,) [C,G,]2 | [G,,G,]6 [C,G,]2 | [C,G,]2 [C,G,]2 [C,G,]2 [C,C]2 | %6
 [F,C]2 [F,C]2 [F,C]2 [F,C]2 | [G,C]2 G,2 [G,,G,]2 [G,,G,]2 | [C,G,]6 || [C,C][C,C] | %10
 [C,C]2 [C,C]>[C,C] [C,C][C,C][C,C][C,C] | [C,G,]4 [C,C]2 [C,C][C,C] | %12
 [F,C]2 [F,C]>[F,C] [F,C][F,C][F,C][F,C] | [C,C]4 [C,G,]2 [C,C][C,C] | %14
 [C,C]2 [C,C]>[C,C] [C,C][C,C][E,C][G,B,] | C4 C2 [E,C]2 | [F,C]2 [^F,A,]2 G,2 [G,,G,]2 | %17
 [C,G,]6 |] %18
V:4
 x2 | x8 | x8 | x4 C,2 x2 | x8 | x8 | x8 | x2 G,2 x4 | x6 || x2 | x8 | x8 | x8 | x8 | x8 | %15
 C4 C2 x2 | x4 G,2 x2 | x6 |] %18

